src/assets/svg/git.svg

<svg width="58" height="58" viewBox="0 0 58 58" fill="none" xmlns="http://www.w3.org/2000/svg">
<ellipse cx="29.0001" cy="29.5369" rx="27.9259" ry="28.463" fill="white"/>
<path d="M28.8878 0.906006C12.9356 0.906006 0 13.7855 0 29.6736C0 42.3841 8.27723 53.1673 19.7553 56.9713C21.199 57.2375 21.7292 56.3472 21.7292 55.5873C21.7292 54.9014 21.7022 52.6351 21.69 50.2313C13.6531 51.9715 11.9573 46.8371 11.9573 46.8371C10.6432 43.512 8.74984 42.628 8.74984 42.628C6.12897 40.8424 8.9474 40.879 8.9474 40.879C11.8483 41.082 13.3758 43.8436 13.3758 43.8436C15.9523 48.2416 20.1337 46.97 21.7822 46.2352C22.0414 44.3756 22.7901 43.1067 23.6162 42.3884C17.1999 41.6607 10.4547 39.194 10.4547 28.1712C10.4547 25.0306 11.5832 22.4642 13.4313 20.4496C13.1313 19.7249 12.1426 16.7991 13.7111 12.8365C13.7111 12.8365 16.1369 12.0633 21.6573 15.7854C23.9615 15.1478 26.4328 14.8283 28.8878 14.8175C31.3429 14.8283 33.816 15.1478 36.1247 15.7854C41.6386 12.0633 44.061 12.8365 44.061 12.8365C45.6333 16.7991 44.6441 19.7249 44.3442 20.4496C46.1963 22.4642 47.3171 25.0303 47.3171 28.1712C47.3171 39.2202 40.5592 41.6533 34.1267 42.3654C35.1627 43.2581 36.086 45.0089 36.086 47.6927C36.086 51.5417 36.0524 54.6397 36.0524 55.5873C36.0524 56.3528 36.5724 57.2499 38.0369 56.9674C49.5087 53.1592 57.7755 42.3798 57.7755 29.6736C57.7755 13.7855 44.8417 0.906006 28.8878 0.906006Z" fill="#161614"/>
<path d="M10.8196 41.8862C10.7561 42.029 10.53 42.0719 10.3246 41.974C10.115 41.8801 9.9972 41.6852 10.0652 41.5417C10.1275 41.3946 10.3536 41.3536 10.5627 41.4524C10.7727 41.546 10.8923 41.7427 10.8196 41.8862ZM12.2405 43.1487C12.1027 43.276 11.8334 43.2168 11.6505 43.0158C11.4616 42.8153 11.4263 42.5472 11.566 42.418C11.7081 42.291 11.9693 42.3503 12.1587 42.5511C12.3476 42.7539 12.3843 43.0203 12.2403 43.1489L12.2405 43.1487ZM13.2153 44.764C13.0382 44.8865 12.7486 44.7717 12.5699 44.5159C12.3929 44.2603 12.3929 43.9534 12.5737 43.8305C12.7532 43.7075 13.0382 43.8181 13.2194 44.0719C13.3961 44.332 13.3961 44.6388 13.2151 44.7643L13.2153 44.764ZM14.8637 46.635C14.7053 46.8087 14.3682 46.7622 14.1213 46.5249C13.8689 46.293 13.7984 45.9638 13.9573 45.7899C14.1174 45.6157 14.4566 45.6647 14.7053 45.9C14.9561 46.1314 15.0327 46.4631 14.8639 46.635H14.8637ZM16.9941 47.2667C16.9246 47.4918 16.5997 47.5943 16.2726 47.4986C15.9459 47.4 15.732 47.1361 15.798 46.9084C15.8659 46.6817 16.1922 46.575 16.5218 46.6774C16.848 46.7755 17.0623 47.0375 16.9944 47.2667H16.9941ZM19.4191 47.5345C19.4273 47.7718 19.1497 47.9685 18.8063 47.9728C18.4608 47.9803 18.1815 47.7883 18.1778 47.555C18.1778 47.3154 18.449 47.1205 18.7943 47.1148C19.1377 47.1081 19.4191 47.2987 19.4191 47.5345ZM21.801 47.4435C21.8423 47.675 21.6035 47.9128 21.2625 47.976C20.9272 48.0369 20.6169 47.8941 20.574 47.6646C20.5324 47.4273 20.7757 47.1897 21.1103 47.1282C21.4519 47.069 21.7575 47.2082 21.801 47.4435Z" fill="#161614"/>
</svg>

<svg width="58" height="58" fill="none" xmlns="http://www.w3.org/2000/svg"><ellipse cx="29" cy="29.537" rx="27.926" ry="28.463" fill="#fff"/><path d="M28.888.906C12.936.906 0 13.786 0 29.674c0 12.71 8.277 23.493 19.755 27.297 1.444.267 1.974-.624 1.974-1.384 0-.686-.027-2.952-.039-5.356-8.037 1.74-9.733-3.394-9.733-3.394-1.314-3.325-3.207-4.209-3.207-4.209-2.621-1.786.197-1.749.197-1.749 2.901.203 4.429 2.965 4.429 2.965 2.576 4.398 6.758 3.126 8.406 2.391.26-1.86 1.008-3.128 1.834-3.847-6.416-.727-13.161-3.194-13.161-14.217 0-3.14 1.128-5.707 2.976-7.721-.3-.725-1.288-3.65.28-7.614 0 0 2.426-.773 7.946 2.95 2.305-.638 4.776-.958 7.23-.968 2.456.01 4.929.33 7.238.967 5.514-3.722 7.936-2.949 7.936-2.949 1.572 3.963.583 6.889.283 7.614 1.852 2.014 2.973 4.58 2.973 7.721 0 11.05-6.758 13.482-13.19 14.194 1.036.893 1.959 2.644 1.959 5.328 0 3.849-.034 6.947-.034 7.894 0 .766.52 1.663 1.985 1.38C49.509 53.16 57.776 42.38 57.776 29.674 57.776 13.786 44.842.906 28.887.906z" fill="#161614"/><path d="M10.82 41.886c-.064.143-.29.186-.495.088-.21-.094-.328-.289-.26-.432.063-.147.289-.188.498-.09.21.094.33.29.257.434zm1.42 1.263c-.137.127-.407.068-.59-.133-.188-.2-.224-.469-.084-.598.142-.127.403-.068.593.133.189.203.225.47.081.598zm.975 1.615c-.177.122-.466.008-.645-.248-.177-.256-.177-.563.004-.685.18-.123.464-.013.645.24.177.261.177.568-.004.693zm1.649 1.871c-.159.174-.496.127-.743-.11-.252-.232-.323-.561-.164-.735.16-.174.5-.125.748.11.251.231.328.563.159.735zm2.13.632c-.07.225-.394.327-.721.232-.327-.099-.541-.363-.475-.59.068-.227.394-.334.724-.232.326.099.54.36.472.59zm2.425.267c.008.238-.27.434-.613.439-.345.007-.625-.185-.628-.418 0-.24.271-.434.616-.44.344-.007.625.184.625.42zm2.382-.09c.041.231-.197.469-.538.532-.336.06-.646-.082-.689-.311-.042-.238.202-.475.536-.537.342-.059.648.08.691.316z" fill="#161614"/></svg>
